src/assets/filled/Pharagraphspacing.svg

<svg width="24" height="24" viewBox="0 0 24 24"  xmlns="http://www.w3.org/2000/svg">
<path d="M21 22.75H3C2.59 22.75 2.25 22.41 2.25 22C2.25 21.59 2.59 21.25 3 21.25H21C21.41 21.25 21.75 21.59 21.75 22C21.75 22.41 21.41 22.75 21 22.75Z" />
<path d="M21 2.75H3C2.59 2.75 2.25 2.41 2.25 2C2.25 1.59 2.59 1.25 3 1.25H21C21.41 1.25 21.75 1.59 21.75 2C21.75 2.41 21.41 2.75 21 2.75Z" />
<path d="M14.3001 15.36L12.7501 16.91V6.70002L14.3001 8.25002C14.4501 8.40002 14.6401 8.47002 14.8301 8.47002C15.0201 8.47002 15.2101 8.40002 15.3601 8.25002C15.6501 7.96002 15.6501 7.48002 15.3601 7.19002L12.5301 4.36002C12.2501 4.08002 11.7501 4.08002 11.4701 4.36002L8.64011 7.19002C8.35011 7.48002 8.35011 7.96002 8.64011 8.25002C8.93011 8.54002 9.41011 8.54002 9.70011 8.25002L11.2501 6.70002V16.91L9.70011 15.36C9.41011 15.07 8.93011 15.07 8.64011 15.36C8.35011 15.65 8.35011 16.13 8.64011 16.42L11.4701 19.25C11.6101 19.39 11.8001 19.47 12.0001 19.47C12.2001 19.47 12.3901 19.39 12.5301 19.25L15.3601 16.42C15.6501 16.13 15.6501 15.65 15.3601 15.36C15.0701 15.07 14.5901 15.07 14.3001 15.36Z" />
</svg>

<?xml version="1.0" encoding="UTF-8"?>
<svg width="24" height="24" viewBox="0 0 24 24" xmlns="http://www.w3.org/2000/svg">
 <path d="m21 22.75h-18c-0.41 0-0.75-0.34-0.75-0.75s0.34-0.75 0.75-0.75h18c0.41 0 0.75 0.34 0.75 0.75s-0.34 0.75-0.75 0.75z"/>
 <path d="m21 2.75h-18c-0.41 0-0.75-0.34-0.75-0.75s0.34-0.75 0.75-0.75h18c0.41 0 0.75 0.34 0.75 0.75s-0.34 0.75-0.75 0.75z"/>
 <path d="m14.3 15.36-1.55 1.55v-10.21l1.55 1.55c0.15 0.15 0.34 0.22 0.53 0.22s0.38-0.07 0.53-0.22c0.29-0.29 0.29-0.77 0-1.06l-2.83-2.83c-0.28-0.28-0.78-0.28-1.06 0l-2.83 2.83c-0.29 0.29-0.29 0.77 0 1.06s0.77 0.29 1.06 0l1.55-1.55v10.21l-1.55-1.55c-0.29-0.29-0.77-0.29-1.06 0s-0.29 0.77 0 1.06l2.83 2.83c0.14 0.14 0.33 0.22 0.53 0.22s0.39-0.08 0.53-0.22l2.83-2.83c0.29-0.29 0.29-0.77 0-1.06s-0.77-0.29-1.06 0z"/>
</svg>
